cssgg/c-plus-plus.svg

<svg
  width="24"
  height="24"
  viewBox="0 0 24 24"
  fill="none"
  xmlns="http://www.w3.org/2000/svg"
>
  <path
    d="M12.207 16.278C11.1241 17.343 9.63879 18 8 18C4.68629 18 2 15.3137 2 12C2 8.68629 4.68629 6 8 6C9.67492 6 11.1896 6.6863 12.278 7.79303L13.6923 6.37878C12.2418 4.91014 10.2272 4 8 4C3.58172 4 0 7.58172 0 12C0 16.4183 3.58172 20 8 20C10.1911 20 12.1764 19.1192 13.6212 17.6923L12.207 16.278Z"
    fill="currentColor"
  />
  <path d="M15 9H13V11H11V13H13V15H15V13H17V11H15V9Z" fill="currentColor" />
  <path d="M20 9H22V11H24V13H22V15H20V13H18V11H20V9Z" fill="currentColor" />
</svg>

<svg viewBox="0 0 24 24" xmlns="http://www.w3.org/2000/svg"><g><path d="M12.2 16.278c-1.09 1.06-2.57 1.72-4.21 1.72 -3.32 0-6-2.69-6-6 0-3.32 2.68-6 6-6 1.67 0 3.18.68 4.27 1.79l1.41-1.42c-1.46-1.47-3.47-2.38-5.7-2.38 -4.42 0-8 3.58-8 8 0 4.41 3.58 8 8 8 2.19 0 4.17-.89 5.62-2.31l-1.42-1.42Z"/><path d="M15 9h-2v2h-2v2h2v2h2v-2h2v-2h-2V9Z"/><path d="M20 9h2v2h2v2h-2v2h-2v-2h-2v-2h2V9Z"/></g></svg>
